src/assets/logo/usatoday.svg

<?xml version="1.0" encoding="UTF-8" standalone="no"?><!DOCTYPE svg PUBLIC "-//W3C//DTD SVG 1.1//EN" "http://www.w3.org/Graphics/SVG/1.1/DTD/svg11.dtd"><svg width="100%" height="100%" viewBox="0 0 540 200" version="1.1" xmlns="http://www.w3.org/2000/svg" xmlns:xlink="http://www.w3.org/1999/xlink" xml:space="preserve" xmlns:serif="http://www.serif.com/" style="fill-rule:evenodd;clip-rule:evenodd;stroke-linejoin:round;stroke-miterlimit:1.41421;"><g id="usa-today" serif:id="usa today"><circle cx="65" cy="100" r="45" style="fill:#a0a0a0;"/><g><path d="M130.67,107.256l0,-32.206l14.366,0l0,27.944c0,5.525 0.632,10.893 7.894,10.893c7.262,0 7.894,-5.368 7.894,-10.893l0,-27.944l14.366,0l0,32.048c0,12.472 -7.894,19.261 -22.26,19.261c-14.682,0.158 -22.26,-6.789 -22.26,-19.103Z" style="fill:#a0a0a0;fill-rule:nonzero;"/><path d="M178.979,119.097l6.947,-9.63c2.526,3.157 6.946,5.841 11.84,5.841c3.789,0 5.999,-1.579 5.999,-4.578c0,-3.474 -3.157,-4.579 -8.683,-6.158c-7.262,-2.21 -13.735,-5.999 -13.735,-14.682c0,-9.472 7.894,-15.945 18.945,-15.945c7.736,0 13.419,2.368 17.208,5.841l-6.472,9.631c-2.053,-2.369 -5.526,-4.421 -9.946,-4.421c-3.789,0 -5.368,1.579 -5.368,3.473c0,3.158 3.789,3.947 7.894,5.368c8.209,2.526 14.524,6.315 14.524,15.63c0,9.63 -6.947,16.892 -19.576,16.892c-9.315,0.158 -16.419,-3.789 -19.577,-7.262Z" style="fill:#a0a0a0;fill-rule:nonzero;"/><path d="M237.393,75.05l15.787,0l18.787,50.362l-14.998,0l-2.368,-7.262l-18.945,0l-2.368,7.262l-14.682,0c0.157,0 18.787,-50.362 18.787,-50.362Zm13.577,31.733l-3.947,-12.157c-0.789,-2.368 -1.421,-5.367 -1.737,-7.578l-0.473,0c-0.316,2.211 -0.948,5.21 -1.737,7.578l-3.947,12.157l11.841,0Z" style="fill:#a0a0a0;fill-rule:nonzero;"/><path d="M292.806,86.733l-12.472,0l0,-11.683l39.311,0l0,11.683l-12.472,0l0,38.679l-14.367,0l0,-38.679Z" style="fill:#a0a0a0;fill-rule:nonzero;"/><path d="M320.592,100.31c0,-12.472 8.841,-26.207 27.628,-26.207c18.787,0 27.628,13.893 27.628,26.207c0,12.314 -8.841,26.049 -27.628,26.049c-18.787,0.158 -27.628,-13.577 -27.628,-26.049Zm40.574,0c0,-8.999 -5.842,-13.735 -12.946,-13.735c-6.946,0 -12.788,4.736 -12.788,13.735c0,8.999 5.842,13.577 12.788,13.577c6.947,0 12.946,-4.578 12.946,-13.577Z" style="fill:#a0a0a0;fill-rule:nonzero;"/><path d="M381.058,75.05l18.629,0c17.84,0 27.944,9.472 27.944,25.26c0,15.472 -10.42,25.26 -27.944,25.26l-18.629,0l0,-50.52Zm14.524,38.837l3.158,0c9.314,0 14.209,-4.42 14.209,-13.577c0,-9.157 -4.895,-13.577 -14.209,-13.577l-3.158,0l0,27.154Z" style="fill:#a0a0a0;fill-rule:nonzero;"/><path d="M444.365,75.05l15.788,0l18.787,50.362l-14.998,0l-2.368,-7.262l-18.945,0l-2.368,7.262l-14.683,0c0.158,0 18.787,-50.362 18.787,-50.362Zm13.578,31.733l-3.947,-12.157c-0.79,-2.368 -1.421,-5.367 -1.737,-7.578l-0.473,0c-0.316,2.211 -0.948,5.21 -1.737,7.578l-3.947,12.157l11.841,0Z" style="fill:#a0a0a0;fill-rule:nonzero;"/><path d="M485.886,107.572l-18.787,-32.364l15.788,0l6.788,12.472c1.421,2.684 3.474,6.631 3.947,9.314l0.316,0c0.474,-2.683 2.368,-6.63 3.947,-9.314l6.788,-12.472l15.314,0l-18.787,32.364l0,17.998l-15.156,0l0,-17.998l-0.158,0Z" style="fill:#a0a0a0;fill-rule:nonzero;"/></g></g></svg>

<?xml version="1.0" encoding="UTF-8" standalone="no"?>
<!DOCTYPE svg PUBLIC "-//W3C//DTD SVG 1.1//EN" "http://www.w3.org/Graphics/SVG/1.1/DTD/svg11.dtd">
<svg width="100%" height="100%" viewBox="0 0 540 200" version="1.1" xmlns="http://www.w3.org/2000/svg" xmlns:xlink="http://www.w3.org/1999/xlink" xml:space="preserve" xmlns:serif="http://www.serif.com/" style="fill-rule:evenodd;clip-rule:evenodd;stroke-linejoin:round;stroke-miterlimit:2;">
    <g id="usa-today" serif:id="usa today">
        <circle cx="65" cy="100" r="45" style="fill:rgb(208,208,208);"/>
        <g>
            <path d="M130.67,107.256L130.67,75.05L145.036,75.05L145.036,102.994C145.036,108.519 145.668,113.887 152.93,113.887C160.192,113.887 160.824,108.519 160.824,102.994L160.824,75.05L175.19,75.05L175.19,107.098C175.19,119.57 167.296,126.359 152.93,126.359C138.248,126.517 130.67,119.57 130.67,107.256Z" style="fill:rgb(208,208,208);fill-rule:nonzero;"/>
            <path d="M178.979,119.097L185.926,109.467C188.452,112.624 192.872,115.308 197.766,115.308C201.555,115.308 203.765,113.729 203.765,110.73C203.765,107.256 200.608,106.151 195.082,104.572C187.82,102.362 181.347,98.573 181.347,89.89C181.347,80.418 189.241,73.945 200.292,73.945C208.028,73.945 213.711,76.313 217.5,79.786L211.028,89.417C208.975,87.048 205.502,84.996 201.082,84.996C197.293,84.996 195.714,86.575 195.714,88.469C195.714,91.627 199.503,92.416 203.608,93.837C211.817,96.363 218.132,100.152 218.132,109.467C218.132,119.097 211.185,126.359 198.556,126.359C189.241,126.517 182.137,122.57 178.979,119.097Z" style="fill:rgb(208,208,208);fill-rule:nonzero;"/>
            <path d="M237.393,75.05L253.18,75.05L271.967,125.412L256.969,125.412L254.601,118.15L235.656,118.15L233.288,125.412L218.606,125.412C218.763,125.412 237.393,75.05 237.393,75.05ZM250.97,106.783L247.023,94.626C246.234,92.258 245.602,89.259 245.286,87.048L244.813,87.048C244.497,89.259 243.865,92.258 243.076,94.626L239.129,106.783L250.97,106.783Z" style="fill:rgb(208,208,208);fill-rule:nonzero;"/>
            <path d="M292.806,86.733L280.334,86.733L280.334,75.05L319.645,75.05L319.645,86.733L307.173,86.733L307.173,125.412L292.806,125.412L292.806,86.733Z" style="fill:rgb(208,208,208);fill-rule:nonzero;"/>
            <path d="M320.592,100.31C320.592,87.838 329.433,74.103 348.22,74.103C367.007,74.103 375.848,87.996 375.848,100.31C375.848,112.624 367.007,126.359 348.22,126.359C329.433,126.517 320.592,112.782 320.592,100.31ZM361.166,100.31C361.166,91.311 355.324,86.575 348.22,86.575C341.274,86.575 335.432,91.311 335.432,100.31C335.432,109.309 341.274,113.887 348.22,113.887C355.167,113.887 361.166,109.309 361.166,100.31Z" style="fill:rgb(208,208,208);fill-rule:nonzero;"/>
            <path d="M381.058,75.05L399.687,75.05C417.527,75.05 427.631,84.522 427.631,100.31C427.631,115.782 417.211,125.57 399.687,125.57L381.058,125.57L381.058,75.05ZM395.582,113.887L398.74,113.887C408.054,113.887 412.949,109.467 412.949,100.31C412.949,91.153 408.054,86.733 398.74,86.733L395.582,86.733L395.582,113.887Z" style="fill:rgb(208,208,208);fill-rule:nonzero;"/>
            <path d="M444.365,75.05L460.153,75.05L478.94,125.412L463.942,125.412L461.574,118.15L442.629,118.15L440.261,125.412L425.578,125.412C425.736,125.412 444.365,75.05 444.365,75.05ZM457.943,106.783L453.996,94.626C453.206,92.258 452.575,89.259 452.259,87.048L451.786,87.048C451.47,89.259 450.838,92.258 450.049,94.626L446.102,106.783L457.943,106.783Z" style="fill:rgb(208,208,208);fill-rule:nonzero;"/>
            <path d="M485.886,107.572L467.099,75.208L482.887,75.208L489.675,87.68C491.096,90.364 493.149,94.311 493.622,96.994L493.938,96.994C494.412,94.311 496.306,90.364 497.885,87.68L504.673,75.208L519.987,75.208L501.2,107.572L501.2,125.57L486.044,125.57L486.044,107.572L485.886,107.572Z" style="fill:rgb(208,208,208);fill-rule:nonzero;"/>
        </g>
    </g>
</svg>
